svgs/samsung_gallery.svg

<svg width="24" height="24" viewBox="0 0 24 24" fill="none" xmlns="http://www.w3.org/2000/svg">
<path fill-rule="evenodd" clip-rule="evenodd" d="M10.5657 2.35156L10.5528 2.36022C9.92392 2.71597 9.47522 3.31994 9.29525 4.10328C9.15644 4.7075 9.25195 5.19562 10.0757 8.09125L10.4085 9.26063L8.69702 7.59141C7.75574 6.67328 6.7839 5.84812 6.53748 5.75797C6.53032 5.75535 6.52316 5.75276 6.516 5.7502C5.28342 5.30935 4.06278 5.79225 3.36368 6.67724C2.78674 7.40633 2.56412 8.4082 2.98217 9.39031L2.98529 9.39761C2.98892 9.40613 2.99259 9.41461 2.9963 9.42306C3.4044 10.3562 4.06133 10.7694 6.04895 11.2784C6.41705 11.3784 6.82867 11.4804 7.28966 11.5873C8.06064 11.7866 8.6167 11.9529 8.65496 12C8.6167 12.0471 8.06064 12.2134 7.28966 12.4127C6.82868 12.5196 6.41706 12.6216 6.04896 12.7216C4.06226 13.2303 3.40502 13.6434 2.99687 14.5756C2.99297 14.5845 2.98911 14.5934 2.98528 14.6024L2.98217 14.6097C2.56415 15.5917 2.78672 16.5936 3.36359 17.3226C4.06673 18.2128 5.29756 18.6963 6.53748 18.242C6.7839 18.1519 7.75574 17.3267 8.69702 16.4086L10.4085 14.7394L10.0757 15.9087C9.25195 18.8044 9.15644 19.2925 9.29525 19.8967C9.47522 20.6801 9.92393 21.284 10.5528 21.6398L10.5657 21.6484C10.9596 21.9116 11.3204 22 12 22C12.0861 22 12.1708 21.9969 12.254 21.9907C12.8332 21.9475 13.3416 21.7561 13.7491 21.4397C13.9202 21.3068 14.0736 21.1519 14.207 20.9767C14.4406 20.67 14.6133 20.3009 14.7132 19.8786C14.789 19.5586 14.7881 19.2574 14.66 18.6558C14.5327 18.0049 14.27 17.0479 13.8168 15.5156L13.7882 15.4187C13.7193 15.1776 13.6717 15.0153 13.656 14.9688C13.6124 14.8398 14.3503 15.4867 15.2957 16.4061C16.1849 17.2711 17.1006 18.0536 17.4112 18.2184C17.4308 18.2288 17.4479 18.2367 17.4626 18.242C18.7809 18.725 20.087 18.15 20.7613 17.1523C21.2433 16.4418 21.4042 15.5173 21.0179 14.6097C21.0145 14.6018 21.0111 14.5939 21.0077 14.5861C20.9961 14.5592 20.9842 14.5327 20.972 14.5066C20.5315 13.5587 19.7892 13.1614 17.5102 12.6122C17.1292 12.5204 16.7704 12.4299 16.4585 12.3478C15.8162 12.175 15.3719 12.0382 15.3443 12C15.3719 11.9618 15.8162 11.825 16.4584 11.6523C16.7704 11.5701 17.1292 11.4796 17.5102 11.3878C19.7892 10.8386 20.5315 10.4413 20.972 9.49341C20.9842 9.46732 20.9961 9.44082 21.0077 9.41392C21.0098 9.40914 21.0119 9.40436 21.0139 9.39955L21.0179 9.39031C21.4042 8.48273 21.2433 7.55822 20.7613 6.84774C20.087 5.85005 18.7809 5.27497 17.4626 5.75797C17.4558 5.76044 17.4485 5.76347 17.4407 5.76702C17.4351 5.76956 17.4293 5.77236 17.4232 5.77543C17.1248 5.92579 16.1966 6.71747 15.2957 7.59391C14.3503 8.51328 13.6124 9.16016 13.656 9.03125C13.6717 8.98475 13.7193 8.82236 13.7882 8.58131L13.8168 8.48438C14.27 6.95214 14.5327 5.99507 14.66 5.34421C14.7881 4.74258 14.789 4.44144 14.7132 4.12141C14.6133 3.69913 14.4406 3.33002 14.207 3.02325C13.7098 2.37052 12.9365 2 12 2C11.3204 2 10.9596 2.08843 10.5657 2.35156ZM11.9993 14.1875C13.2301 14.1875 14.2279 13.2081 14.2279 12C14.2279 10.7919 13.2301 9.8125 11.9993 9.8125C10.7684 9.8125 9.77063 10.7919 9.77063 12C9.77063 13.2081 10.7684 14.1875 11.9993 14.1875Z" fill="#FFF1C0"/>
</svg>

<svg xmlns="http://www.w3.org/2000/svg" width="24" height="24" fill="none" viewBox="0 0 24 24"><path fill="#FFF1C0" fill-rule="evenodd" d="m10.566 2.352-.013.008c-.63.356-1.078.96-1.258 1.743-.139.604-.043 1.093.78 3.988l.334 1.17-1.712-1.67c-.941-.918-1.913-1.743-2.16-1.833a3.083 3.083 0 0 0-.021-.008c-1.233-.44-2.453.042-3.152.927-.577.73-.8 1.731-.382 2.713l.003.008.011.025c.408.933 1.065 1.346 3.053 1.855.368.1.78.202 1.24.31.772.199 1.328.365 1.366.412-.038.047-.594.213-1.365.413-.461.107-.873.209-1.241.309-1.987.508-2.644.921-3.052 1.854a2.734 2.734 0 0 0-.012.026l-.003.008c-.418.982-.195 1.984.382 2.713.703.89 1.934 1.373 3.173.919.247-.09 1.219-.915 2.16-1.833l1.712-1.67-.333 1.17c-.824 2.895-.92 3.383-.78 3.988.18.783.628 1.387 1.257 1.743l.013.008c.394.264.754.352 1.434.352.086 0 .17-.003.254-.01a2.737 2.737 0 0 0 1.495-.55 2.51 2.51 0 0 0 .458-.463 2.9 2.9 0 0 0 .506-1.098c.076-.32.075-.622-.053-1.223-.127-.651-.39-1.608-.843-3.14l-.029-.097a17.19 17.19 0 0 0-.132-.45c-.044-.13.694.518 1.64 1.437.889.865 1.805 1.648 2.115 1.812.02.01.037.019.052.024 1.318.483 2.624-.092 3.298-1.09.482-.71.643-1.635.257-2.542a5.554 5.554 0 0 0-.046-.103c-.44-.948-1.183-1.346-3.462-1.895a57.1 57.1 0 0 1-1.052-.264c-.642-.173-1.086-.31-1.114-.348.028-.038.472-.175 1.114-.348.312-.082.671-.172 1.052-.264 2.28-.55 3.021-.947 3.462-1.895l.036-.08.006-.013.004-.01c.386-.907.225-1.832-.257-2.542-.674-.998-1.98-1.573-3.298-1.09a.303.303 0 0 0-.04.017c-.298.15-1.226.942-2.127 1.819-.946.92-1.684 1.566-1.64 1.437.016-.046.063-.209.132-.45l.029-.097c.453-1.532.716-2.489.843-3.14.128-.601.129-.903.053-1.223a2.9 2.9 0 0 0-.506-1.098C13.71 2.371 12.937 2 12 2c-.68 0-1.04.088-1.434.352m1.433 11.836c1.231 0 2.229-.98 2.229-2.188 0-1.208-.998-2.187-2.229-2.187-1.23 0-2.228.979-2.228 2.187 0 1.208.997 2.188 2.228 2.188" clip-rule="evenodd"/></svg>
